resources/svg/page-break.svg

<svg xmlns="http://www.w3.org/2000/svg" viewBox="0 0 14 14" fill="currentColor"><path d="M1,6 L3,6 C3.55228475,6 4,6.44771525 4,7 C4,7.55228475 3.55228475,8 3,8 L1,8 C0.44771525,8 0,7.55228475 0,7 C0,6.44771525 0.44771525,6 1,6 Z M11,6 L13,6 C13.5522847,6 14,6.44771525 14,7 C14,7.55228475 13.5522847,8 13,8 L11,8 C10.4477153,8 10,7.55228475 10,7 C10,6.44771525 10.4477153,6 11,6 Z M6,6 L8,6 C8.55228475,6 9,6.44771525 9,7 C9,7.55228475 8.55228475,8 8,8 L6,8 C5.44771525,8 5,7.55228475 5,7 C5,6.44771525 5.44771525,6 6,6 Z M0,1 C0,0.44771525 0.44771525,-2.26485497e-13 1,-2.26485497e-13 C1.55228475,-2.26485497e-13 2,0.44771525 2,1 L2,3.0142458 L12,3.0142458 L12,1 C12,0.44771525 12.4477153,-2.26485497e-13 13,-2.26485497e-13 C13.5522847,-2.26485497e-13 14,0.44771525 14,1 L14,3.0142458 C14,4.1188153 13.1045695,5.0142458 12,5.0142458 L2,5.0142458 C0.8954305,5.0142458 0,4.1188153 0,3.0142458 L0,1 Z M0,13.0142458 L0,11 C0,9.8954305 0.8954305,9 2,9 L12,9 C13.1045695,9 14,9.8954305 14,11 L14,13.0142458 C14,13.5665305 13.5522847,14.0142458 13,14.0142458 C12.4477153,14.0142458 12,13.5665305 12,13.0142458 L12,11 L2,11 L2,13.0142458 C2,13.5665305 1.55228475,14.0142458 1,14.0142458 C0.44771525,14.0142458 0,13.5665305 0,13.0142458 Z"/></svg>

<svg xmlns="http://www.w3.org/2000/svg" fill="currentColor" viewBox="0 0 14 14"><path d="M1 6h2a1 1 0 1 1 0 2H1a1 1 0 1 1 0-2Zm10 0h2a1 1 0 0 1 0 2h-2a1 1 0 0 1 0-2ZM6 6h2a1 1 0 1 1 0 2H6a1 1 0 1 1 0-2ZM0 1a1 1 0 1 1 2 0v2.014h10V1a1 1 0 0 1 2 0v2.014a2 2 0 0 1-2 2H2a2 2 0 0 1-2-2V1Zm0 12.014V11a2 2 0 0 1 2-2h10a2 2 0 0 1 2 2v2.014a1 1 0 0 1-2 0V11H2v2.014a1 1 0 0 1-2 0Z"/></svg>
